public/ContainerizationLogoD.svg

<svg width="403" height="401" viewBox="0 0 403 401" fill="none" xmlns="http://www.w3.org/2000/svg">
<g clip-path="url(#clip0_378_342)">
<path d="M297.93 202.722C301.042 200.814 304.959 200.814 308.171 202.722L385.479 247.301C388.693 249.108 390.601 252.522 390.601 256.237V345.393C390.601 349.108 388.693 352.522 385.479 354.329L308.171 398.907C305.058 400.814 301.143 400.814 297.93 398.907L220.621 354.329C219.014 353.425 217.709 352.22 216.806 350.614C215.802 349.008 215.399 347.301 215.399 345.493V256.237C215.399 252.522 217.308 249.108 220.622 247.301L297.93 202.722ZM337.689 256.939C332.167 256.939 327.749 261.357 327.749 266.879V316.376L286.183 266.678L283.171 263.064C279.858 258.947 274.336 257.04 269.616 257.04C263.091 257.04 258.372 261.357 258.372 266.678V334.851C258.367 336.158 258.62 337.452 259.117 338.661C259.615 339.869 260.347 340.967 261.271 341.891C262.195 342.815 263.293 343.548 264.501 344.045C265.709 344.543 267.005 344.796 268.312 344.791C269.618 344.796 270.913 344.543 272.121 344.045C273.329 343.548 274.428 342.816 275.352 341.892C276.276 340.968 277.008 339.869 277.506 338.661C278.003 337.452 278.256 336.158 278.251 334.851V285.454L322.829 338.667C326.142 342.783 331.664 344.69 336.384 344.69C342.909 344.69 347.628 340.373 347.628 335.052V266.879C347.628 261.357 343.211 256.939 337.689 256.939Z" fill="#251518"/>
</g>
<g clip-path="url(#clip1_378_342)">
<mask id="mask0_378_342" style="mask-type:luminance" maskUnits="userSpaceOnUse" x="104" y="3" width="198" height="198">
<path d="M301.395 3.66431H104.472V200.587H301.395V3.66431Z" fill="white"/>
</mask>
<g mask="url(#mask0_378_342)">
<path d="M261.025 60.8726C261.482 61.2332 273.081 67.9056 275.09 81.7022C277.83 81.2514 280.662 80.9809 283.402 80.9809C293.996 80.9809 298.93 84.6763 299.478 85.1277L301.395 86.4797L300.571 88.8265C299.201 92.0717 297.284 94.956 294.727 97.3C290.891 101.087 283.95 105.506 272.717 105.506H270.89C266.415 116.868 260.294 129.673 249.973 141.125C243.827 148.008 236.611 153.855 228.603 158.439C218.831 163.939 208.235 167.726 197.185 169.71C189.239 171.153 181.201 171.873 173.165 171.873C155.355 171.873 139.555 168.537 129.874 162.676C121.289 157.446 114.623 148.878 110.148 137.336C106.22 126.786 104.301 115.605 104.484 104.424C104.484 101.088 107.225 98.3819 110.604 98.3819H240.295C241.941 98.2917 249.794 97.6613 254.634 94.9563C250.615 88.6446 249.426 81.2505 251.344 73.4059C252.348 69.3483 254.085 65.3809 256.368 61.8643L258.194 59.2471L261.025 60.8726ZM140.012 76.2905C140.926 76.2905 141.565 77.0117 141.566 77.8228V93.1536C141.566 94.0551 140.835 94.6859 140.012 94.6859H122.66C121.838 94.6852 121.2 94.0545 121.109 93.1536V77.8228C121.11 76.9222 121.839 76.2911 122.66 76.2905H140.012ZM163.943 76.2905C164.855 76.2905 165.496 77.0117 165.496 77.8228V93.1536C165.496 94.0548 164.765 94.6856 163.943 94.6859H146.59C145.768 94.6859 145.128 94.0551 145.037 93.1536V77.8228C145.037 76.9216 145.768 76.2905 146.59 76.2905H163.943ZM188.327 76.2905C189.239 76.2905 189.88 77.0117 189.88 77.8228V93.1536C189.88 94.0551 189.149 94.6859 188.327 94.6859H170.974C170.061 94.6859 169.421 94.0548 169.421 93.1536V77.8228C169.421 76.9219 170.153 76.2905 170.974 76.2905H188.327ZM212.347 76.2905C213.26 76.2905 213.9 77.0117 213.901 77.8228V93.1536C213.901 94.0551 213.169 94.6859 212.347 94.6859H194.994C194.173 94.6859 193.441 94.0551 193.441 93.1536V77.8228C193.442 76.9216 194.173 76.2905 194.994 76.2905H212.347ZM236.551 76.2905C237.463 76.2911 238.101 77.012 238.101 77.8228V93.1536C238.101 94.0545 237.372 94.6852 236.551 94.6859H219.198C218.376 94.6859 217.736 94.0551 217.645 93.1536V77.8228C217.645 76.9216 218.376 76.2905 219.198 76.2905H236.551ZM163.943 54.3794C164.855 54.3797 165.493 55.1006 165.493 55.9117V71.2425C165.493 72.0536 164.764 72.7745 163.943 72.7748H146.59C145.769 72.7748 145.128 72.0536 145.037 71.2425V55.9117C145.037 55.0102 145.768 54.3794 146.59 54.3794H163.943ZM188.327 54.3794C189.24 54.3794 189.88 55.1003 189.88 55.9117V71.2425C189.88 72.0539 189.148 72.7748 188.327 72.7748H170.974C170.061 72.7748 169.421 72.0532 169.421 71.2425V55.9117C169.421 55.0105 170.152 54.3794 170.974 54.3794H188.327ZM212.347 54.3794C213.169 54.3794 213.9 55.1003 213.901 55.9117V71.2425C213.9 72.0539 213.169 72.7748 212.347 72.7748H194.994C194.173 72.7748 193.441 72.0536 193.441 71.2425V55.9117C193.441 55.0102 194.173 54.3794 194.994 54.3794H212.347ZM212.347 32.3782C213.169 32.3782 213.901 33.0988 213.901 33.9105V49.2413C213.9 50.1422 213.169 50.7736 212.347 50.7736H194.994C194.173 50.7736 193.442 50.052 193.441 49.2413V33.9105C193.441 33.0086 194.173 32.3782 194.994 32.3782H212.347Z" fill="#251518"/>
</g>
</g>
<mask id="mask1_378_342" style="mask-type:luminance" maskUnits="userSpaceOnUse" x="2" y="200" width="200" height="201">
<path d="M201.445 200.865H2.34546V400.865H201.445V200.865Z" fill="white"/>
</mask>
<g mask="url(#mask1_378_342)">
<path d="M142.355 211.85C145.708 211.855 148.778 212.59 151.405 214.132C162.85 220.737 165.449 241.366 159.605 267.294C184.928 275.081 201.445 287.636 201.445 300.885C201.445 314.093 185.009 326.649 159.848 334.436C165.732 360.281 163.174 380.868 151.77 387.472C149.092 389.021 146.007 389.755 142.598 389.755C131.438 389.754 116.827 381.848 102.056 368.069C87.2842 381.929 72.6738 389.92 61.5137 389.92C58.1059 389.92 55.0218 389.186 52.3846 387.637C40.9402 381.033 38.341 360.403 44.1849 334.476C18.8622 326.689 2.34554 314.134 2.34546 300.885C2.34546 287.676 18.7814 275.161 44.024 267.334C38.1397 241.489 40.696 220.902 52.0991 214.297C54.7773 212.748 57.8621 212.015 61.2707 212.015V211.972C72.4308 211.972 87.0409 219.882 101.813 233.661C116.585 219.8 131.195 211.81 142.355 211.81V211.85ZM52.8706 336.923C51.978 341.04 51.2482 345.076 50.8018 348.907C48.9349 364.479 51.3288 376.586 56.8473 379.766C58.0649 380.46 59.6085 380.827 61.4346 380.868C69.8758 380.868 82.2946 374.101 95.5241 361.749C89.8022 355.756 84.1204 348.908 78.6421 341.366C69.5109 340.388 60.8249 338.88 52.8706 336.923ZM151.002 336.841C143.048 338.838 134.362 340.345 125.191 341.324C119.793 348.865 114.111 355.674 108.43 361.666C121.66 373.937 134.119 380.664 142.519 380.664C144.386 380.664 145.968 380.339 147.186 379.605C152.664 376.384 155.017 364.276 153.11 348.703C152.663 344.912 151.935 340.957 151.002 336.841ZM113.136 342.264C109.443 342.467 105.669 342.547 101.855 342.547C98.0813 342.547 94.3463 342.426 90.6938 342.264C94.4272 347.033 98.2029 351.393 101.977 355.307C105.71 351.394 109.484 347.032 113.136 342.264ZM101.895 268.353C95.7263 268.353 89.5984 268.638 83.5514 269.168C80.1832 274.019 76.9376 279.238 73.7722 284.741C70.7285 290.081 67.8851 295.544 65.369 301.007C67.9256 306.47 70.7273 311.893 73.8118 317.233C76.9768 322.696 80.2654 327.873 83.6336 332.724C89.6395 333.213 95.7674 333.499 101.895 333.499C108.064 333.499 114.192 333.211 120.239 332.681C123.606 327.831 126.853 322.614 130.018 317.111C133.061 311.771 135.864 306.308 138.421 300.845C135.864 295.382 133.063 289.959 129.978 284.619C126.813 279.156 123.525 273.979 120.156 269.128C114.15 268.639 108.023 268.353 101.895 268.353ZM60.6236 311.972C58.5132 317.394 56.6447 322.817 55.1431 328.076C60.4594 329.381 66.0195 330.439 71.7822 331.296C69.794 328.197 67.8475 325.017 65.9402 321.756C64.0329 318.495 62.2873 315.233 60.6236 311.972ZM143.127 311.81C141.463 315.071 139.717 318.372 137.85 321.634C135.983 324.936 133.996 328.157 132.008 331.296C137.811 330.439 143.413 329.341 148.729 328.036C147.187 322.736 145.318 317.273 143.127 311.81ZM46.2568 276.138C42.3202 277.402 38.5034 278.75 35.0133 280.258C20.6478 286.373 11.3562 294.485 11.3562 300.885C11.3563 307.285 20.6478 315.356 35.0133 321.511C38.5438 323.02 42.3606 324.407 46.3784 325.671C48.6509 317.722 51.6527 309.446 55.3861 300.967C51.6119 292.447 48.57 284.128 46.2568 276.138ZM157.372 276.098C155.1 284.048 152.095 292.323 148.361 300.802C152.135 309.322 155.18 317.639 157.494 325.628C161.43 324.365 165.244 323.02 168.734 321.511C183.1 315.397 192.393 307.285 192.434 300.885C192.434 294.485 183.142 286.414 168.777 280.258C165.206 278.75 161.39 277.362 157.372 276.098ZM101.855 282.254C112.098 282.254 120.402 290.596 120.402 300.885C120.402 311.173 112.098 319.515 101.855 319.516C91.6128 319.516 83.3088 311.174 83.3085 300.885C83.3085 290.596 91.6128 282.254 101.855 282.254ZM71.7427 270.474C65.9392 271.33 60.3377 272.43 55.0215 273.694C56.5636 278.993 58.4323 284.457 60.6236 289.92C62.2873 286.659 64.031 283.397 65.8976 280.136C67.7644 276.834 69.7542 273.613 71.7427 270.474ZM131.968 270.474C133.956 273.571 135.944 276.75 137.81 280.011C139.718 283.271 141.463 286.534 143.127 289.795C145.237 284.373 147.103 278.952 148.604 273.694C143.289 272.389 137.73 271.33 131.968 270.474ZM61.2707 221.106C59.4044 221.106 57.8216 221.431 56.6043 222.165C51.1257 225.385 48.7729 237.494 50.6802 253.067C51.167 256.858 51.8552 260.813 52.7884 264.889C60.7425 262.892 69.4281 261.381 78.5995 260.403C83.9969 252.861 89.6787 246.053 95.3602 240.06C82.1307 227.79 69.6711 221.063 61.2707 221.063V221.106ZM142.316 220.901C133.875 220.923 121.475 227.688 108.266 240.021C113.988 246.013 119.67 252.862 125.148 260.403C134.279 261.381 142.965 262.89 150.919 264.846C151.812 260.73 152.542 256.694 152.988 252.862C154.855 237.291 152.461 225.184 146.943 222.003C145.685 221.31 144.182 220.941 142.316 220.941V220.901ZM101.773 246.463C98.0399 250.376 94.2642 254.736 90.6117 259.506C94.3049 259.302 98.0801 259.222 101.895 259.222C105.669 259.222 109.404 259.343 113.057 259.506C109.323 254.736 105.548 250.376 101.773 246.463Z" fill="#251518"/>
</g>
<defs>
<clipPath id="clip0_378_342">
<rect width="200" height="200" fill="white" transform="translate(203 200.814)"/>
</clipPath>
<clipPath id="clip1_378_342">
<rect width="200" height="200" fill="white" transform="translate(101.895 0.814209)"/>
</clipPath>
</defs>
</svg>

<svg xmlns="http://www.w3.org/2000/svg" width="403" height="401" fill="none" xmlns:v="https://vecta.io/nano"><g clip-path="url(#C)"><path d="M297.93 202.722c3.112-1.908 7.029-1.908 10.241 0l77.308 44.579c3.214 1.807 5.122 5.221 5.122 8.936v89.156c0 3.715-1.908 7.129-5.122 8.936l-77.308 44.578c-3.113 1.907-7.028 1.907-10.241 0l-77.309-44.578c-1.607-.904-2.912-2.109-3.815-3.715-1.004-1.606-1.407-3.313-1.407-5.121v-89.256c0-3.715 1.909-7.129 5.223-8.936l77.308-44.579zm39.759 54.217a9.9 9.9 0 0 0-9.94 9.94v49.497l-41.566-49.698-3.012-3.614c-3.313-4.117-8.835-6.024-13.555-6.024-6.525 0-11.244 4.317-11.244 9.638v68.173a9.92 9.92 0 0 0 .745 3.81 9.91 9.91 0 0 0 2.154 3.23c.924.924 2.022 1.657 3.23 2.154a9.9 9.9 0 0 0 3.811.746c1.306.005 2.601-.248 3.809-.746s2.307-1.229 3.231-2.153 1.656-2.023 2.154-3.231a9.92 9.92 0 0 0 .745-3.81v-49.397l44.578 53.213c3.313 4.116 8.835 6.023 13.555 6.023 6.525 0 11.244-4.317 11.244-9.638v-68.173c0-5.522-4.417-9.94-9.939-9.94z" fill="#251518"/></g><g clip-path="url(#D)"><mask id="A" maskUnits="userSpaceOnUse" x="104" y="3" width="198" height="198"><path d="M301.395 3.664H104.472v196.923h196.923V3.664z" fill="#fff"/></mask><g mask="url(#A)"><path d="M261.025 60.873c.457.361 12.056 7.033 14.065 20.83 2.74-.451 5.572-.721 8.312-.721 10.594 0 15.528 3.695 16.076 4.147l1.917 1.352-.824 2.347c-1.37 3.245-3.287 6.13-5.844 8.474-3.836 3.787-10.777 8.206-22.01 8.206h-1.827c-4.475 11.362-10.596 24.167-20.917 35.619-6.146 6.883-13.362 12.73-21.37 17.314-9.772 5.5-20.368 9.287-31.418 11.271a134.42 134.42 0 0 1-24.02 2.163c-17.81 0-33.61-3.336-43.291-9.197-8.585-5.23-15.251-13.798-19.726-25.34-3.928-10.55-5.847-21.731-5.664-32.912 0-3.336 2.741-6.042 6.12-6.042h129.691c1.646-.09 9.499-.721 14.339-3.426-4.019-6.312-5.208-13.706-3.29-21.55 1.004-4.058 2.741-8.025 5.024-11.542l1.826-2.617 2.831 1.625zM140.012 76.291a1.53 1.53 0 0 1 1.554 1.532v15.331c0 .901-.731 1.532-1.554 1.532H122.66c-.822-.001-1.46-.631-1.551-1.532V77.823c.001-.901.73-1.532 1.551-1.532h17.352zm23.931 0a1.53 1.53 0 0 1 1.553 1.532v15.331c0 .901-.731 1.532-1.553 1.532H146.59c-.822 0-1.462-.631-1.553-1.532V77.823c0-.901.731-1.532 1.553-1.532h17.353zm24.384 0a1.53 1.53 0 0 1 1.553 1.532v15.331c0 .901-.731 1.532-1.553 1.532h-17.353c-.913 0-1.553-.631-1.553-1.532V77.823c0-.901.732-1.532 1.553-1.532h17.353zm24.02 0a1.53 1.53 0 0 1 1.554 1.532v15.331c0 .901-.732 1.532-1.554 1.532h-17.353c-.821 0-1.553-.631-1.553-1.532V77.823c.001-.901.732-1.532 1.553-1.532h17.353zm24.204 0a1.53 1.53 0 0 1 1.55 1.532v15.331c0 .901-.729 1.532-1.55 1.532h-17.353c-.822 0-1.462-.631-1.553-1.532V77.823c0-.901.731-1.532 1.553-1.532h17.353zm-72.608-21.911c.912 0 1.55.721 1.55 1.532v15.331c0 .811-.729 1.532-1.55 1.532H146.59c-.821 0-1.462-.721-1.553-1.532V55.912c0-.902.731-1.532 1.553-1.532h17.353zm24.384 0a1.53 1.53 0 0 1 1.553 1.532v15.331c0 .811-.732 1.532-1.553 1.532h-17.353a1.53 1.53 0 0 1-1.553-1.532V55.912c0-.901.731-1.532 1.553-1.532h17.353zm24.02 0c.822 0 1.553.721 1.554 1.532v15.331c-.001.811-.732 1.532-1.554 1.532h-17.353c-.821 0-1.553-.721-1.553-1.532V55.912c0-.902.732-1.532 1.553-1.532h17.353zm0-22.001c.822 0 1.554.721 1.554 1.532v15.331c-.001.901-.732 1.532-1.554 1.532h-17.353c-.821 0-1.552-.722-1.553-1.532V33.911c0-.902.732-1.532 1.553-1.532h17.353z" fill="#251518"/></g></g><mask id="B" maskUnits="userSpaceOnUse" x="2" y="200" width="200" height="201"><path d="M201.445 200.865H2.345v200h199.1v-200z" fill="#fff"/></mask><g mask="url(#B)"><path d="M142.355 211.85c3.353.005 6.423.74 9.05 2.282 11.445 6.605 14.044 27.234 8.2 53.162 25.323 7.787 41.84 20.342 41.84 33.591 0 13.208-16.436 25.764-41.597 33.551 5.884 25.845 3.326 46.432-8.078 53.036-2.678 1.549-5.763 2.283-9.172 2.283-11.16-.001-25.771-7.907-40.542-21.686-14.772 13.86-29.382 21.851-40.542 21.851-3.408 0-6.492-.734-9.129-2.283-11.444-6.604-14.044-27.234-8.2-53.161-25.323-7.787-41.839-20.342-41.839-33.591 0-13.209 16.436-25.724 41.679-33.551-5.884-25.845-3.328-46.432 8.075-53.037 2.678-1.549 5.763-2.282 9.172-2.282v-.043c11.16 0 25.77 7.91 40.542 21.689 14.772-13.861 29.382-21.851 40.542-21.851v.04zM52.871 336.923c-.893 4.117-1.622 8.153-2.069 11.984-1.867 15.572.527 27.679 6.045 30.859 1.218.694 2.761 1.061 4.587 1.102 8.441 0 20.86-6.767 34.09-19.119-5.722-5.993-11.404-12.841-16.882-20.383-9.131-.978-17.817-2.486-25.771-4.443zm98.131-.082c-7.954 1.997-16.64 3.504-25.811 4.483-5.398 7.541-11.08 14.35-16.761 20.342 13.23 12.271 25.689 18.998 34.089 18.998 1.867 0 3.449-.325 4.667-1.059 5.478-3.221 7.831-15.329 5.924-30.902-.447-3.791-1.175-7.746-2.108-11.862zm-37.866 5.423c-3.693.203-7.467.283-11.281.283-3.774 0-7.509-.121-11.161-.283 3.733 4.769 7.509 9.129 11.283 13.043a159.09 159.09 0 0 0 11.159-13.043zm-11.241-73.911c-6.169 0-12.297.285-18.344.815-3.368 4.851-6.614 10.07-9.779 15.573-3.044 5.34-5.887 10.803-8.403 16.266 2.557 5.463 5.358 10.886 8.443 16.226 3.165 5.463 6.454 10.64 9.822 15.491 6.006.489 12.134.775 18.261.775 6.169 0 12.297-.288 18.344-.818 3.367-4.85 6.614-10.067 9.779-15.57 3.043-5.34 5.846-10.803 8.403-16.266a212.45 212.45 0 0 0-8.443-16.226c-3.165-5.463-6.453-10.64-9.822-15.491-6.006-.489-12.133-.775-18.261-.775zm-41.271 43.619c-2.11 5.422-3.979 10.845-5.481 16.104 5.316 1.305 10.876 2.363 16.639 3.22a271.6 271.6 0 0 1-5.842-9.54c-1.907-3.261-3.653-6.523-5.317-9.784zm82.503-.162c-1.664 3.261-3.41 6.562-5.277 9.824-1.867 3.302-3.854 6.523-5.842 9.662 5.803-.857 11.405-1.955 16.721-3.26a175.37 175.37 0 0 0-5.602-16.226zm-96.87-35.672c-3.937 1.264-7.753 2.612-11.243 4.12-14.365 6.115-23.657 14.227-23.657 20.627s9.292 14.471 23.657 20.626c3.53 1.509 7.347 2.896 11.365 4.16 2.273-7.949 5.274-16.225 9.008-24.704-3.774-8.52-6.816-16.839-9.129-24.829zm111.115-.04c-2.272 7.95-5.277 16.225-9.011 24.704 3.774 8.52 6.819 16.837 9.133 24.826 3.936-1.263 7.75-2.608 11.24-4.117 14.366-6.114 23.659-14.226 23.7-20.626 0-6.4-9.292-14.471-23.657-20.627-3.571-1.508-7.387-2.896-11.405-4.16zm-55.517 6.156c10.243 0 18.547 8.342 18.547 18.631s-8.304 18.63-18.547 18.631-18.546-8.342-18.547-18.631 8.304-18.631 18.547-18.631zm-30.112-11.78c-5.803.856-11.405 1.956-16.721 3.22 1.542 5.299 3.411 10.763 5.602 16.226 1.664-3.261 3.407-6.523 5.274-9.784 1.867-3.302 3.857-6.523 5.845-9.662zm60.225 0c1.988 3.097 3.976 6.276 5.842 9.537 1.908 3.26 3.653 6.523 5.317 9.784 2.11-5.422 3.976-10.843 5.477-16.101-5.315-1.305-10.874-2.364-16.636-3.22zm-70.697-49.368c-1.866 0-3.449.325-4.666 1.059-5.479 3.22-7.831 15.329-5.924 30.902a123.44 123.44 0 0 0 2.108 11.822c7.954-1.997 16.64-3.508 25.811-4.486 5.397-7.542 11.079-14.35 16.761-20.343-13.23-12.27-25.689-18.997-34.09-18.997v.043zm81.045-.205c-8.441.022-20.841 6.787-34.05 19.12 5.722 5.992 11.404 12.841 16.882 20.382 9.131.978 17.817 2.487 25.771 4.443.893-4.116 1.623-8.152 2.069-11.984 1.867-15.571-.527-27.678-6.045-30.859-1.258-.693-2.761-1.062-4.627-1.062v-.04zm-40.543 25.562c-3.733 3.913-7.509 8.273-11.161 13.043 3.693-.204 7.468-.284 11.283-.284 3.774 0 7.509.121 11.162.284-3.734-4.77-7.509-9.13-11.284-13.043z" fill="#251518"/></g><defs><clipPath id="C"><path fill="#fff" transform="translate(203 200.814)" d="M0 0h200v200H0z"/></clipPath><clipPath id="D"><path fill="#fff" transform="translate(101.895 .814)" d="M0 0h200v200H0z"/></clipPath></defs></svg>
